X:57
T: WAS GLEICHET UNS TURNERN
N: B0541
O: Europa, Mitteleuropa, Deutschland
R: Turner - Lied
M: 6/8
L: 1/16
K: G
D2 | G3FG2A3GA2 | B2G4z4
G2 | B3AB2c3Bc2 | d3edcB4
GB | d2d2d2B3AB2 | c2c2c2A3G
A2 | B2B2A2B4dc | B2B2A2G4
GB | d2d2d2B3AB2 | c2c2c2A3G
A2 | B2B2A2B4dc | B2B2A2G4

